X: 52
T: No_148_The_Sky_Will_Resound.krn
%%abc-version 2.0
%%abcx-abcm2ps-target-version 5.9.1 (29 Sep 2008)
%%abc-creator hum2abc beta
%%abcx-conversion-date 2020/08/10 18:54:58
%%gracespace 0 6 6
%%humdrum-veritas 390338238
%%humdrum-veritas-data 1790185034
%%linebreak <none>
%%barnumbers 0
L: 1/8
M: 3/4
%%staves {1 2}
V: 1 clef=bass
V: 2 clef=bass
K: Bb
[V:1] [K:clef=bass][M:3/4]F>FF4- ||  
[V:2] [K:clef=bass][M:3/4](3!accent!G,, z G,, (3!accent!G,, z G,, (3!accent!G,, z G,, ||  
[V:1] [M:2/4]FDB,2 ||  
[V:2] [M:2/4]z4 ||  
[V:1] [M:3/4]DFD2D3/C/ | 
[V:2] [M:3/4]z6 | 
[V:1] B,>B,B,4- ||  
[V:2] z6 ||  
[V:1] [M:2/4]B,>D DF | 
[V:2] [M:2/4]z4 | 
[V:1] D4 | 
[V:2] z4 | 
[V:1] D>D B,3/D/ ||  
[V:2] z4 ||  
[V:1] [M:3/4]DDB,4 ||  
[V:2] [M:3/4]z6 ||  
[V:1] [M:2/4](3B,F,F, D,3/B,/ ||  
[V:2] [M:2/4]z4 ||  
[V:1] [M:3/4]B,DB,4- ||  
[V:2] [M:3/4]z6 ||  
[V:1] [M:2/4]B,F, D,3/F,/ ||  
[V:2] [M:2/4]z4 ||  
[V:1] [M:3/4]F,G,F,4- ||  
[V:2] [M:3/4]z6 ||  
[V:1] [M:2/4]F,D, B,,3/D,/ ||  
[V:2] [M:2/4]z4 ||  
[V:1] [M:3/4]D,F,D,2-D,C, | 
[V:2] [M:3/4]z6 | 
[V:1] B,,>B,,B,,3B,, | 
[V:2] z6 | 
[V:1] B,,6 |]  
[V:2] z6 |]  


